en/template-builder/_images/index/support_new.svg

<svg width="121" height="121" viewBox="0 0 121 121" fill="none" xmlns="http://www.w3.org/2000/svg">
<path fill-rule="evenodd" clip-rule="evenodd" d="M22.2999 109.081L10.9613 97.7477C8.3346 95.121 8.09725 91.8411 9.43058 88.8278L42.7292 15.5745C44.2332 12.7212 47.5238 11.5881 50.4385 14.5081L105.542 69.601C108.454 72.521 107.318 75.8144 104.47 77.321L31.2146 110.614C28.2066 111.948 24.9239 111.708 22.2999 109.081Z" fill="url(#paint0_linear)"/>
<path d="M77.6251 89.4946C80.3158 94.7612 79.4571 101.388 75.0464 105.801C69.5664 111.281 60.6758 111.281 55.1958 105.801C53.7638 104.361 52.7051 102.694 52.0225 100.921" stroke="#0055D9" stroke-width="2" stroke-miterlimit="79.8403" stroke-linecap="round" stroke-linejoin="round"/>
<path d="M81.7056 38.4946L102.783 17.4146" stroke="#0055D9" stroke-width="2" stroke-miterlimit="79.8403" stroke-linecap="round" stroke-linejoin="round"/>
<path d="M70.8252 27.5745L79.6145 3.33464" stroke="#0055D9" stroke-width="2" stroke-miterlimit="79.8403" stroke-linecap="round" stroke-linejoin="round"/>
<path d="M92.4893 49.241L116.74 40.4545" stroke="#0055D9" stroke-width="2" stroke-miterlimit="79.8403" stroke-linecap="round" stroke-linejoin="round"/>
<defs>
<linearGradient id="paint0_linear" x1="12.5035" y1="43.541" x2="123.004" y2="94.5398" gradientUnits="userSpaceOnUse">
<stop offset="0.02" stop-color="#0064FF"/>
<stop offset="0.06" stop-color="#005FFF" stop-opacity="0.86"/>
<stop offset="0.11" stop-color="#005BFF" stop-opacity="0.72"/>
<stop offset="0.17" stop-color="#0057FF" stop-opacity="0.59"/>
<stop offset="0.23" stop-color="#0053FF" stop-opacity="0.48"/>
<stop offset="0.3" stop-color="#0051FF" stop-opacity="0.4"/>
<stop offset="0.38" stop-color="#004FFF" stop-opacity="0.33"/>
<stop offset="0.48" stop-color="#004DFF" stop-opacity="0.28"/>
<stop offset="0.61" stop-color="#004CFF" stop-opacity="0.26"/>
<stop offset="1" stop-color="#004CFF" stop-opacity="0.25"/>
</linearGradient>
</defs>
</svg>

<svg xmlns="http://www.w3.org/2000/svg" width="121" height="121" fill="none"><path fill="url(#a)" fill-rule="evenodd" d="M22.3 109.081 10.96 97.748c-2.626-2.627-2.864-5.907-1.53-8.92l33.298-73.254c1.504-2.853 4.795-3.986 7.71-1.066l55.103 55.093c2.912 2.92 1.776 6.213-1.072 7.72l-73.255 33.293c-3.008 1.334-6.291 1.094-8.915-1.533Z" clip-rule="evenodd"/><path stroke="#0055D9" stroke-linecap="round" stroke-linejoin="round" stroke-miterlimit="79.84" stroke-width="2" d="M77.625 89.495c2.69 5.266 1.832 11.893-2.579 16.306-5.48 5.48-14.37 5.48-19.85 0a14.096 14.096 0 0 1-3.173-4.88M81.706 38.495l21.077-21.08M70.825 27.575l8.79-24.24M92.49 49.241l24.25-8.786"/><defs><linearGradient id="a" x1="12.504" x2="123.004" y1="43.541" y2="94.54" gradientUnits="userSpaceOnUse"><stop offset=".02" stop-color="#0064FF"/><stop offset=".06" stop-color="#005FFF" stop-opacity=".86"/><stop offset=".11" stop-color="#005BFF" stop-opacity=".72"/><stop offset=".17" stop-color="#0057FF" stop-opacity=".59"/><stop offset=".23" stop-color="#0053FF" stop-opacity=".48"/><stop offset=".3" stop-color="#0051FF" stop-opacity=".4"/><stop offset=".38" stop-color="#004FFF" stop-opacity=".33"/><stop offset=".48" stop-color="#004DFF" stop-opacity=".28"/><stop offset=".61" stop-color="#004CFF" stop-opacity=".26"/><stop offset="1" stop-color="#004CFF" stop-opacity=".25"/></linearGradient></defs></svg>
